**kern	**kern	**dynam
*part1	*part1	*part1
*staff2	*staff1	*
*I"Piano	*	*
*clefF4	*clefG2	*
*k[b-e-a-]	*k[b-e-a-]	*
=1	=1	=1
*	*^	*
4AA-X)) 4A-X	4c) 4e-	4ryy	.
(4GG [4E-	(12B-L	4B-	.
.	12fn	.	.
.	12e-J	.	.
=	=	=	=
4.AA-) 4.E-]	(4g-X	4.c-X)	>
.	8fL)	.	.
8AAn 8F#X	8e-J	8c-	]
*	*v	*v	*
=	=	=
8BB- 8G	8B- 8e-	.
!	!LO:TX:b:i:t=dim.	!
8r	8r	.
4r	4r	.
=	=	=
(((2B-> 2f> 2a->	([4b- 4ee- [4bb-	p
.	8b-]) 8dd 8bb-]	.
.	8ee-	.
=	=	=
*^	*	*
8E-) 8B-	8g>)	([4b-) [4gg	.
4B-)	8ryy	.	.
.	4ryy	8b-] 8gg]	.
[8BB-	.	8r	.
*v	*v	*	*
=	=	=
4.BB-]	[2G [2B- [2e- [2g	.
8BB-	.	.
=	=	=
8EE-	8G] 8B-] 8e-] 8g]	pp
8r	8r	.
4r	4r	.
==	==	==
*-	*-	*-
!!!system-decoration: {(s1,s2)}
!!!RDF**kern: > = above
